packages/kaspersky-hexa-ui-icons/src/iconsSVGs/64x42/FlagMo.svg

<svg width="64" height="42" viewBox="0 0 64 42" fill="none" xmlns="http://www.w3.org/2000/svg">
<g clip-path="url(#clip0_37941_2313)">
<rect width="64" height="42" rx="5" fill="white"/>
<path fill-rule="evenodd" clip-rule="evenodd" d="M0 42H64V0H0V42Z" fill="#079D7B"/>
<g clip-path="url(#clip1_37941_2313)">
<path fill-rule="evenodd" clip-rule="evenodd" d="M27.4499 25.1997H20.8003C21.1324 26.1966 21.5794 27.1359 22.1243 27.9997H41.8762C42.4212 27.1359 42.8682 26.1966 43.2003 25.1997H36.4609C36.915 25.1153 37.3807 25.01 37.8527 24.8836C41.587 23.883 44.3084 21.9305 43.9312 20.5227C43.5539 19.1148 40.2209 18.7847 36.4867 19.7853C36.2642 19.8449 36.0453 19.9079 35.8305 19.9739C35.9142 19.4073 35.9588 18.8128 35.9588 18.1998C35.9588 14.3338 34.1864 11.1998 32.0002 11.1998C29.8139 11.1998 28.0416 14.3338 28.0416 18.1998C28.0416 18.8159 28.0866 19.4134 28.1711 19.9825C27.981 19.925 27.7878 19.8698 27.5918 19.8173C23.8575 18.8167 20.5245 19.1469 20.1472 20.5547C19.77 21.9626 22.4914 23.915 26.2257 24.9156C26.6398 25.0266 27.0491 25.1212 27.4499 25.1997ZM32.0003 33.5999C34.8284 33.5999 37.4257 32.551 39.4653 30.7999H24.5353C26.5749 32.551 29.1721 33.5999 32.0003 33.5999ZM32.0003 25.1999C35.8663 25.1999 39.0003 24.5731 39.0003 23.7999C39.0003 23.0267 35.8663 22.3999 32.0003 22.3999C28.1343 22.3999 25.0003 23.0267 25.0003 23.7999C25.0003 24.5731 28.1343 25.1999 32.0003 25.1999Z" fill="white"/>
<path fill-rule="evenodd" clip-rule="evenodd" d="M33.4 6.99985C33.4 7.77305 32.7732 8.39985 32 8.39985C31.2268 8.39985 30.6 7.77305 30.6 6.99985C30.6 6.22665 31.2268 5.59985 32 5.59985C32.7732 5.59985 33.4 6.22665 33.4 6.99985ZM22.2001 13.9999C22.2001 14.7731 21.5733 15.3999 20.8001 15.3999C20.0269 15.3999 19.4001 14.7731 19.4001 13.9999C19.4001 13.2267 20.0269 12.5999 20.8001 12.5999C21.5733 12.5999 22.2001 13.2267 22.2001 13.9999ZM43.2003 15.3999C43.9735 15.3999 44.6003 14.7731 44.6003 13.9999C44.6003 13.2267 43.9735 12.5999 43.2003 12.5999C42.4271 12.5999 41.8003 13.2267 41.8003 13.9999C41.8003 14.7731 42.4271 15.3999 43.2003 15.3999ZM40.4003 9.79994C40.4003 10.5731 39.7735 11.1999 39.0003 11.1999C38.2271 11.1999 37.6003 10.5731 37.6003 9.79994C37.6003 9.02674 38.2271 8.39994 39.0003 8.39994C39.7735 8.39994 40.4003 9.02674 40.4003 9.79994ZM25.0001 11.1999C25.7733 11.1999 26.4001 10.5731 26.4001 9.79994C26.4001 9.02674 25.7733 8.39994 25.0001 8.39994C24.2269 8.39994 23.6001 9.02674 23.6001 9.79994C23.6001 10.5731 24.2269 11.1999 25.0001 11.1999Z" fill="#FCD117"/>
</g>
</g>
<defs>
<clipPath id="clip0_37941_2313">
<rect width="64" height="42" rx="5" fill="white"/>
</clipPath>
<clipPath id="clip1_37941_2313">
<rect width="25.2" height="29.4" fill="white" transform="translate(19.4001 5.59985)"/>
</clipPath>
</defs>
</svg>

<svg xmlns="http://www.w3.org/2000/svg" width="64" height="42" fill="none" viewBox="0 0 64 42"><g clip-path="url(#a)"><rect width="64" height="42" fill="#fff" rx="5"/><path fill="#079d7b" fill-rule="evenodd" d="M0 42h64V0H0z" clip-rule="evenodd"/><g fill-rule="evenodd" clip-path="url(#b)" clip-rule="evenodd"><path fill="#fff" d="M27.4499 25.1997h-6.6496a12.87 12.87 0 0 0 1.324 2.8h19.7519c.545-.8638.992-1.8031 1.3241-2.8h-6.7394a18.4 18.4 0 0 0 1.3918-.3161c3.7343-1.0006 6.4557-2.9531 6.0785-4.3609s-3.7103-1.738-7.4445-.7374a19 19 0 0 0-.6562.1886 12.16 12.16 0 0 0 .1283-1.7741c0-3.866-1.7724-7-3.9586-7s-3.9586 3.134-3.9586 7c0 .6161.045 1.2136.1295 1.7827a19 19 0 0 0-.5793-.1652c-3.7343-1.0006-7.0673-.6704-7.4446.7374s2.3442 3.3603 6.0785 4.3609c.4141.111.8234.2056 1.2242.2841m4.5504 8.4002c2.8281 0 5.4254-1.0489 7.465-2.8h-14.93c2.0396 1.7511 4.6368 2.8 7.465 2.8m0-8.4c3.866 0 7-.6268 7-1.4s-3.134-1.4-7-1.4-7 .6268-7 1.4 3.134 1.4 7 1.4"/><path fill="#fcd117" d="M33.4 6.9999c0 .7731-.6268 1.4-1.4 1.4s-1.4-.6269-1.4-1.4c0-.7732.6268-1.4 1.4-1.4s1.4.6268 1.4 1.4m-11.1999 7c0 .7732-.6268 1.4-1.4 1.4s-1.4-.6268-1.4-1.4.6268-1.4 1.4-1.4 1.4.6268 1.4 1.4m21.0002 1.4c.7732 0 1.4-.6268 1.4-1.4s-.6268-1.4-1.4-1.4-1.4.6268-1.4 1.4.6268 1.4 1.4 1.4m-2.8-5.6c0 .7732-.6268 1.4-1.4 1.4s-1.4-.6268-1.4-1.4.6268-1.4 1.4-1.4 1.4.6268 1.4 1.4m-15.4002 1.4c.7732 0 1.4-.6268 1.4-1.4s-.6268-1.4-1.4-1.4-1.4.6268-1.4 1.4.6268 1.4 1.4 1.4"/></g></g><defs><clipPath id="a"><rect width="64" height="42" fill="#fff" rx="5"/></clipPath><clipPath id="b"><path fill="#fff" d="M19.4001 5.5999h25.2v29.4h-25.2z"/></clipPath></defs></svg>
